!!!SOCIAL_FUNCTION:	bird dance songs
!!!PDT:	1956
!!!OTL: No_91_Bird_Dance_Song_(n).krn
!!!LANG: Non-Tone
!!!LING_GROUP: Muskogean
!!!REG: Florida
**kern
*staff1
=1-
=
*clefF4
*k[b-]
*M2/4
4A\
8A\L
8A\J
=2||
*M3/4
8G\L
8F\J
16F\LL
16F\J
8G\J
8G\
8r
=3||
*M2/4
4A\
16A\LL
16G\J
8F\J
=4||
*M3/4
8G\L
8F\J
16C/LL
16C/J
8F/J
8F\
8r
=5||
*M2/4
16G\LL
16G\J
8F\J
8F\L
8D\J
=6
8D\L
8G\J
8G\L
8F\J
=7
8F\L
16D\L
16D\JJ
8D\
8r
=8
4D\
4F\
==:|!
*-
